X:3619
T:Lemmy Brazil's No.1
O:england
M:4/4
L:1/8
K:G
|:ef|gd BA GB dg|ed cd e2fe|dg fe dB  (3cBA|
GB de d2ef|gd BA GB dg|ed cd e2fe|dg fe dB  (3cBA|
G2g2g2:|
|:z2| (3BdB G2B4|c2A2cd ef|gg fe dB Gd|
e2dB A4| (3BdB G2B4|c2A2cd ef|gg fe dB  (3GAB|
[1A2F2G2:|[2A2f2g2


